svgs/light/sink.svg

<svg xmlns="http://www.w3.org/2000/svg" viewBox="0 0 512 512"><!--! Font Awesome Pro 6.1.1 by @fontawesome - https://fontawesome.com License - https://fontawesome.com/license (Commercial License) Copyright 2022 Fonticons, Inc. --><path d="M496 288L384 288V272c0-8.812 7.172-15.1 16-15.1l64 .0002c8.844 0 16-7.156 16-15.1S472.8 224 464 224h-64C373.5 224 352 245.5 352 272v16L272 288V80C272 53.53 293.5 32 320 32s48 21.53 48 48v32c0 8.844 7.156 15.1 16 15.1S400 120.8 400 112v-32C400 35.88 364.1 0 320 0S240 35.88 240 80V288L160 288V272C160 245.5 138.5 224 112 224h-64C39.16 224 32 231.2 32 240S39.16 256 48 256l64-.0002C120.8 256 128 263.2 128 272V288L16 288c-8.844 0-16 7.156-16 16S7.156 320 16 320h480c8.844 0 16-7.156 16-15.1S504.8 288 496 288zM464 352c-8.844 0-16 7.156-16 16v32c0 44.13-35.89 80-80 80h-224C99.89 480 64 444.1 64 400v-32C64 359.2 56.84 352 48 352S32 359.2 32 368v32C32 461.8 82.25 512 144 512h224c61.75 0 112-50.25 112-112v-32C480 359.2 472.8 352 464 352z"/></svg>

<svg xmlns="http://www.w3.org/2000/svg" viewBox="0 0 512 512"><!--! Font Awesome Pro 6.5.1 by @fontawesome - https://fontawesome.com License - https://fontawesome.com/license (Commercial License) Copyright 2023 Fonticons, Inc. --><path d="M272 80c0-26.5 21.5-48 48-48s48 21.5 48 48v32c0 8.8 7.2 16 16 16s16-7.2 16-16V80c0-44.2-35.8-80-80-80s-80 35.8-80 80V288H160V272c0-26.5-21.5-48-48-48H48c-8.8 0-16 7.2-16 16s7.2 16 16 16h64c8.8 0 16 7.2 16 16v16H16c-8.8 0-16 7.2-16 16s7.2 16 16 16H144 256 368 496c8.8 0 16-7.2 16-16s-7.2-16-16-16H384V272c0-8.8 7.2-16 16-16h64c8.8 0 16-7.2 16-16s-7.2-16-16-16H400c-26.5 0-48 21.5-48 48v16H272V80zM32 352v48c0 61.9 50.1 112 112 112H368c61.9 0 112-50.1 112-112V352H448v48c0 44.2-35.8 80-80 80H144c-44.2 0-80-35.8-80-80V352H32z"/></svg>
